X: 1
T:Advice to the ladies
M:6/8
L:1/8
R:Jig
O:Bcd d2
H:via Cock and Bul
K:G
G2B AGF|G2B ABc|B3d3|ABc cBA|G2B AGF|G2B ABc|B3d3|cBA G3:|
:B2B dBG|ABA Adc|BcB Bcd|e2d efg|B2B dBG|ABA Adc|B3d3|cBA G3:|
:gfe dcB|ABc def|gfg efg|fdd def|g2de2c|d2B ABc|B3d3|cBA G3:|!
